flags/pk-jk.svg

<svg width="512" height="512" viewBox="0 0 512 512" fill="none" xmlns="http://www.w3.org/2000/svg">
<path d="M0 0H224L256 88L224 176L128 208L0 176V0Z" fill="var(--flag-palette-gold, #ff9811)"/>
<path d="M0 224L256 192L512 224V272L480 296L512 320V368L480 392L512 416V464L256 496L0 464V416L32 392L0 368V320L32 296L0 272V224Z" fill="var(--flag-palette-white, #eeeeee)"/>
<path d="M224 0V176H0V224H512V0H224ZM0 272V320H512V272H0ZM0 368V416H512V368H0ZM0 464V512H512V464H0Z" fill="var(--flag-palette-dark-green, #496e2d)"/>
<path fill-rule="evenodd" clip-rule="evenodd" d="M376.199 165.7C396.826 165.7 415.475 157.238 428.867 143.597C416.179 171.387 388.145 190.7 355.6 190.7C311.141 190.7 275.1 154.659 275.1 110.2C275.1 74.2984 298.602 43.8857 331.061 33.5088C313.625 47.0073 302.399 68.1427 302.399 91.8999C302.399 132.658 335.441 165.7 376.199 165.7ZM387.484 68.5597L370 76L388.433 80.4241L390 100L400.269 83.2647L420 88L406.572 72.9929L417 56L398.436 63.8994L386 50L387.484 68.5597Z" fill="var(--flag-palette-white, #eeeeee)"/>
</svg>

<svg xmlns="http://www.w3.org/2000/svg" width="512" height="512" fill="none"><path fill="var(--flag-palette-gold, #ff9811)" d="M0 0h224l32 88-32 88-96 32L0 176z"/><path fill="var(--flag-palette-white, #eeeeee)" d="m0 224 256-32 256 32v48l-32 24 32 24v48l-32 24 32 24v48l-256 32L0 464v-48l32-24-32-24v-48l32-24-32-24z"/><path fill="var(--flag-palette-dark-green, #496e2d)" d="M224 0v176H0v48h512V0zM0 272v48h512v-48zm0 96v48h512v-48zm0 96v48h512v-48z"/><path fill="var(--flag-palette-white, #eeeeee)" fill-rule="evenodd" d="M376.2 165.7c20.6 0 39.3-8.5 52.7-22.1a80.5 80.5 0 1 1-97.8-110 73.7 73.7 0 0 0 45.1 132.1m11.3-97.1L370 76l18.4 4.4L390 100l10.3-16.7L420 88l-13.4-15L417 56l-18.6 7.9L386 50z" clip-rule="evenodd"/></svg>
